src/pos-icons/vector-circle.svg

<svg height="24" viewBox="0 0 24 24" width="24" xmlns="http://www.w3.org/2000/svg"><path d="m9 2v2.06c-2.28.86-4.08 2.66-4.95 4.94h-2.05v6h2.06c.86 2.28 2.66 4.09 4.94 4.95v2.05h6v-2.06c2.28-.86 4.09-2.66 4.95-4.94h2.05v-6h-2.06c-.86-2.28-2.66-4.08-4.94-4.95v-2.05m-4 2h2v2h-2m-2 .25v1.75h6v-1.75c1.18.61 2.14 1.57 2.75 2.75h-1.75v6h1.75c-.61 1.18-1.57 2.14-2.75 2.75v-1.75h-6v1.75c-1.18-.61-2.14-1.57-2.75-2.75h1.75v-6h-1.75c.61-1.18 1.57-2.14 2.75-2.75m-5 4.75h2v2h-2m14-2h2v2h-2m-7 5h2v2h-2"/></svg>

<?xml version="1.0" encoding="UTF-8"?><!DOCTYPE svg PUBLIC "-//W3C//DTD SVG 1.1//EN" "http://www.w3.org/Graphics/SVG/1.1/DTD/svg11.dtd"><svg xmlns="http://www.w3.org/2000/svg" xmlns:xlink="http://www.w3.org/1999/xlink" version="1.1" id="mdi-vector-circle" width="24" height="24" viewBox="0 0 24 24"><path d="M9,2V4.06C6.72,4.92 4.92,6.72 4.05,9H2V15H4.06C4.92,17.28 6.72,19.09 9,19.95V22H15V19.94C17.28,19.08 19.09,17.28 19.95,15H22V9H19.94C19.08,6.72 17.28,4.92 15,4.05V2M11,4H13V6H11M9,6.25V8H15V6.25C16.18,6.86 17.14,7.82 17.75,9H16V15H17.75C17.14,16.18 16.18,17.14 15,17.75V16H9V17.75C7.82,17.14 6.86,16.18 6.25,15H8V9H6.25C6.86,7.82 7.82,6.86 9,6.25M4,11H6V13H4M18,11H20V13H18M11,18H13V20H11" /></svg>
